templates/themes/base/img/icon/pending-32.svg

<svg enable-background="new 0 0 40 40" height="32" viewBox="0 0 40 40" width="32" xmlns="http://www.w3.org/2000/svg"><path d="m4.5 21.5v-8.412l3.851-10.588h23.298l3.851 10.588v8.412z" fill="#f5ce85"/><path d="m31.3 3 3.7 10.176v7.824h-30v-7.824l3.7-10.176zm.7-1h-24l-4 11v9h32v-9z" fill="#967a44"/><path d="m7 19h26v-5.471l-3.101-8.529h-19.798l-3.101 8.529z" fill="#deb974"/><path d="m4.5 37.5v-24h10.022c.253 2.8 2.613 5 5.478 5s5.225-2.2 5.478-5h10.022v24z" fill="#f5ce85"/><path d="m35 14v23h-30v-23h9.083c.477 2.834 2.949 5 5.917 5s5.439-2.166 5.917-5zm1-1h-11c0 2.761-2.239 5-5 5s-5-2.239-5-5h-11v25h32z" fill="#967a44"/><circle cx="20" cy="28" fill="#fff" r="6.5"/><path d="m20 22c3.308 0 6 2.692 6 6s-2.692 6-6 6-6-2.692-6-6 2.692-6 6-6m0-1c-3.866 0-7 3.134-7 7s3.134 7 7 7 7-3.134 7-7-3.134-7-7-7z" fill="#ba9b48"/><path d="m22.706 24.002-2.706 3.998 2.262 2.262" fill="none" stroke="#66798f" stroke-miterlimit="10"/><circle cx="20" cy="28" fill="#66798f" r="1"/></svg>

<?xml version="1.0" encoding="iso-8859-1"?>
<!-- Generator: Adobe Illustrator 19.2.0, SVG Export Plug-In . SVG Version: 6.00 Build 0)  -->
<svg xmlns="http://www.w3.org/2000/svg" xmlns:xlink="http://www.w3.org/1999/xlink" version="1.1" id="Layer_1" x="0px" y="0px" viewBox="0 0 40 40" style="enable-background:new 0 0 40 40;" xml:space="preserve" width="32px" height="32px">
<g>
	<polygon style="fill:#F5CE85;" points="4.5,21.5 4.5,13.088 8.351,2.5 31.649,2.5 35.5,13.088 35.5,21.5  "/>
	<g>
		<path style="fill:#967A44;" d="M31.3,3L35,13.176V21H5v-7.824L8.7,3H31.3 M32,2H8L4,13v9h32v-9L32,2L32,2z"/>
	</g>
</g>
<polygon style="fill:#DEB974;" points="7,19 33,19 33,13.529 29.899,5 10.101,5 7,13.529 "/>
<g>
	<path style="fill:#F5CE85;" d="M4.5,37.5v-24h10.022c0.253,2.8,2.613,5,5.478,5s5.225-2.2,5.478-5H35.5v24H4.5z"/>
	<g>
		<path style="fill:#967A44;" d="M35,14v23H5V14h9.083c0.477,2.834,2.949,5,5.917,5s5.439-2.166,5.917-5H35 M36,13H25    c0,2.761-2.239,5-5,5s-5-2.239-5-5H4v25h32V13L36,13z"/>
	</g>
</g>
<g>
	<circle style="fill:#FFFFFF;" cx="20" cy="28" r="6.5"/>
	<g>
		<path style="fill:#BA9B48;" d="M20,22c3.308,0,6,2.692,6,6s-2.692,6-6,6s-6-2.692-6-6S16.692,22,20,22 M20,21    c-3.866,0-7,3.134-7,7s3.134,7,7,7s7-3.134,7-7S23.866,21,20,21L20,21z"/>
	</g>
</g>
<polyline style="fill:none;stroke:#66798F;stroke-miterlimit:10;" points="22.706,24.002 20,28 22.262,30.262 "/>
<g>
	<circle style="fill:#66798F;" cx="20" cy="28" r="1"/>
</g>
</svg>
